X:1
T:Title
%%score { ( 1 3 ) | ( 2 4 ) }
L:1/8
M:4/4
K:F
V:1 treble nm="Grand Piano"
V:3 treble 
V:2 bass 
V:4 bass 
V:1
 z4 z[Q:1/4=100] FAG | F6 z2 | A F3- FFFG | A6 z2 |[M:5/8] [CEG]-[CEG]- [CEG]3 |[M:3/8] z3 | %6
[M:4/4] z [A,C][A,C][A,C] [CF]2 [CEG]2 | A A3- AFAA | A6 z2 |[M:5/8] F-F- F3 |[M:3/8] cde | %11
[M:4/4] f6 z2 | d c3- cFFG | B6 z2 |[M:5/8] [Ec]-[Ec]- [Ec]3 |[M:3/8] cde |[M:4/4] f6 z2 | %17
 d c3- cFFG | A6 z2 |[M:5/8] F-F- F3 |] %20
V:2
 z8 | z [F,A,][F,A,][F,A,] [D,A,]2 [C,C]2 | [F,CF] [F,A,C]3- [F,A,C] z z2 | %3
 z [F,C][F,C][E,^C] [D,D]2 [G,=B,F]2 |[M:5/8] C,-C,- C,3 |[M:3/8][K:treble] GAG | %6
[M:4/4] F4[K:bass] z4 | [F,CF] [F,CF]3- [F,CF] z z2 | z [F,C][F,C][F,C] [C,C]2 [C,B,C]2 | %9
[M:5/8] [F,A,C]-[F,A,C]- [F,A,C]3 |[M:3/8] z3 |[M:4/4] z [F,C][F,C][F,C] [F,C]2 [F,A,F]2 | %12
 [F,B,F] [F,A,F]3- [F,A,F] z z2 | z [F,C][F,C][E,^C] [D,D]2 [G,DF]2 |[M:5/8] [C,C]-[C,C]- [C,C]3 | %15
[M:3/8] z3 |[M:4/4] z [F,C][F,C][F,C] [F,C]2 [F,A,F]2 | [F,B,F] [F,A,F]3- [F,A,F] z z2 | %18
 z [F,C][F,C][F,C] [C,C]2 [C,B,C]2 |[M:5/8] [F,A,C]-[F,A,C]- [F,A,C]3 |] %20
V:3
 x8 | z CCC D2 [EG]2 | x8 | z FFG F2 G2 |[M:5/8] x5 |[M:3/8] x3 |[M:4/4] x8 | x8 | z FFF F2 G2 | %9
[M:5/8] x5 |[M:3/8] x3 |[M:4/4] z AAA A2 c2 | x8 | z FFG F2 =B2 |[M:5/8] x5 |[M:3/8] x3 | %16
[M:4/4] z AAA A2 c2 | x8 | z FFF F2 G2 |[M:5/8] x5 |] %20
V:4
 x8 | x8 | x8 | x8 |[M:5/8] x5 |[M:3/8][K:treble] x3 |[M:4/4] z[K:bass] F,F,F, A,,2 C,2 | x8 | x8 | %9
[M:5/8] x5 |[M:3/8] x3 |[M:4/4] x8 | x8 | x8 |[M:5/8] x5 |[M:3/8] x3 |[M:4/4] x8 | x8 | x8 | %19
[M:5/8] x5 |] %20

